X: 34
T: Buttermilk Mary
R: reel
Z: 2012 John Chambers <jc@trillian.mit.edu>
B: "100 Essential Irish Session Tunes" 1995 Dave Mallinson, ed.
M: 4/4
L: 1/8
K: Bm
A |\
"Bm"FB~B2 fB~B2 | "G"dcBc "A"AEED | FB~B2 "F#m"ABce | "A"afec "Bm"B3a |\
"F#m"f2ec f2ec | "G"BABc "A"BAFE | "Bm"FB~B2 "F#m"ABce | "A"afec "Bm"B3 :|
|: A |\
"Bm"FBdc BFFA | "A"EAcB AEED | "Bm"FBdc Bdfb | "A"afec "Bm"B2dc |\
"Bm"Bcde fBBf | "F#m"afec "A"ABce | "F#m"f3a "G"b2bf | "A"afec "Bm"B3 :|
